!!!ONB: MCCC : IFS0367_02 : Extracted Monophonic Melody
!!!COM: Schubert, Franz
!!!OPR: 4 Impromptus
!!!OMV: 2
!!!SCT: D.935 ; Op.142
!!!ODT: 1827///
**kern
*staff1
*clefG2
*k[b-e-a-d-]
*A-:
*M3/4
4e-
=2
4a-
4.a-
8b-
=3
4a-
4.g
8b-
=4
4b-
4a-
4b-
=5
2cc
4e-
=6
4cc
4.cc
8dd-
=7
4cc
4.b-
8cc
=8
4b-
4a-
8.ee-
16dd-
=9
2cc
4ee-
=10
4aa-
4.aa-
8bb-
=11
4aa-
4.gg
8bb-
=12
4bb-
4aa-
4bb-
=13
2ccc
4ee-
=14
4ccc
4.ccc
8ddd-
=15
4ccc
4.bb-
8ccc
=16
4bb-
8aa-
32bb-
32aa-
32gg
32aa-
8.ccc
16bb-
=17
2aa-
4e-
=18
4a-
4.a-
8b-
=19
4a-
4.g
8b-
=20
4b-
4a-
4b-
=21
2cc
4e-
=22
4cc
4.cc
8dd-
=23
4cc
4.b-
8cc
=24
4b-
4a-
8.ee-
16dd-
=25
2cc
4ee-
=26
4aa-
4.aa-
8bb-
=27
4aa-
4.gg
8bb-
=28
4bb-
4aa-
4bb-
=29
2ccc
4ee-
=30
4ccc
4.ccc
8ddd-
=31
4ccc
4.bb-
8ccc
=32
4bb-
8aa-
32bb-
32aa-
32gg
32aa-
8.ccc
16bb-
=33
2aa-
8r
8ee-
=34
4ee-
4.ee-
8cc
=35
4cc
4.cc
8a-
=36
4a-
4b-
4dd-
=37
2cc[
8cc]
8ff
=38
4ff
4.ff
8dd-
=39
4dd-
4.dd-
8a-
=40
4a-
4dd-
4gg-
=41
2ff[
8ff]
8gg-
=42
2.gg-
=43
4ee
4ee-
8dd-
8a-
=44
4a-
8b-
8a-
8g
8a-
=45
8a-
8cc
4b-
4a-
=46
4e-
2e-
=47
4e-
4e-
4e-
=48
4a-
4.a-
8b-
=49
4a-
4.g
8b-
=50
4b-
4a-
4b-
=51
2cc
4e-
=52
4cc
4.cc
8b-
=53
4b-
4.a
8b-
=54
4b-
4a-
4g
=55
2a-
4ee-
=56
4aa-
4.aa-
8bb-
=57
4aa-
4.gg
8bb-
=58
4bb-
4aa-
4bb-
=59
2ccc
4ee-
=60
4ccc
4.ccc
8bb-
=61
4bb-
4.aa
8bb-
=62
4bb-
4aa-
4gg
=63
2aa-
8r
8ee-
=64
4ee-
4.ee-
8cc
=65
4cc
4.cc
8a-
=66
4a-
4b-
4dd-
=67
2cc[
8cc]
8ff
=68
4ff
4.ff
8dd-
=69
4dd-
4.dd-
8a-
=70
4a-
4dd-
4gg-
=71
2ff[
8ff]
8gg-
=72
2.gg-
=73
4ee
4ee-
8dd-
8a-
=74
4a-
8b-
8a-
8g
8a-
=75
8a-
8cc
4b-
4a-
=76
4e-
2e-
=77
4e-
4e-
4e-
=78
4a-
4.a-
8b-
=79
4a-
4.g
8b-
=80
4b-
4a-
4b-
=81
2cc
4e-
=82
4cc
4.cc
8b-
=83
4b-
4.a
8b-
=84
4b-
4a-
4g
=85
2a-
4ee-
=86
4aa-
4.aa-
8bb-
=87
4aa-
4.gg
8bb-
=88
4bb-
4aa-
4bb-
=89
2ccc
4ee-
=90
4ccc
4.ccc
8bb-
=91
4bb-
4.aa
8bb-
=92
4bb-
4aa-
4gg
=93
2aa-
4A-
=94
12F
12A-
12d-
12f
12d-
12A-
12F
12A-
12d-
=95
12A-
12d-
12f
12a-
12f
12d-
12A-
12d-
12f
=96
12d
12f
12a-
12e-
12g-
12a-
12e-
12g-
12a
=97
12c
12g-
12b-
12c
12f
12a-
12c
12e-
12g-
=98
12f
12a-
12dd-
12ff
12dd-
12a-
12f
12a-
12dd-
=99
12a-
12dd-
12ff
12aa-
12ff
12dd-
12a-
12dd-
12ff
=100
12dd-
12ff
12aa-
12ee-
12gg-
12aa-
12ee-
12gg-
12aa
=101
12cc
12gg-
12bb-
12cc
12ff
12aa-
12cc
12ee-
12gg-
=102
12cc
12ee-
12ff
12b-
12dd-
12ff
12a-
12cc
12ff
=103
12a-
12b-
12ff
12g-
12b-
12ee-
12f
12b-
12dd-
=104
12e-
12a-
12cc
12f
12a-
12dd-
12g-
12a-
12ee-
=105
12f
12a-
12dd-
12a-
12f
12d-
12f
12d-
12A-
=106
12F
12A-
12d-
12f
12d-
12A-
12F
12A-
12d-
=107
12A-
12d-
12f
12a-
12f
12d-
12A-
12d-
12f
=108
12d
12f
12a-
12e-
12g-
12a-
12e-
12g-
12a
=109
12c
12g-
12b-
12c
12f
12a-
12c
12e-
12g-
=110
12f
12a-
12dd-
12ff
12dd-
12a-
12f
12a-
12dd-
=111
12a-
12dd-
12ff
12aa-
12ff
12dd-
12a-
12dd-
12ff
=112
12dd-
12ff
12aa-
12ee-
12gg-
12aa-
12ee-
12gg-
12aa
=113
12cc
12gg-
12bb-
12cc
12ff
12aa-
12cc
12ee-
12gg-
=114
12cc
12ee-
12ff
12b-
12dd-
12ff
12a-
12cc
12ff
=115
12a-
12b-
12ff
12g-
12b-
12ee-
12f
12b-
12dd-
=116
12e-
12a-
12cc
12f
12a-
12dd-
12g-
12a-
12ee-
=117
12f
12a-
12dd-
12a-
12f
12d-
12f
12d-
12A-
=118
12E
12A-
12d-
12e
12d-
12A-
12E
12A-
12d-
=119
12A-
12d-
12e
12a-
12e
12d-
12A-
12d-
12e
=120
12d
12f
12a-
12e-
12g-
12a-
12d-
12f
12a-
=121
12e-
12g-
12a
12c
12e
12a-
12c
12e-
12g-
=122
12e
12a-
12dd-
12ee
12dd-
12a-
12e
12a-
12dd-
=123
12a-
12dd-
12ee
12aa-
12ee
12dd-
12a-
12dd-
12ee
=124
12ee-
12gg-
12aa-
12ee-
12gg-
12bb-
12ee-
12gg-
12ccc
=125
12dd-
12ee
12ddd-
12ee-
12gg-
12eee-
12ee
12aa-
12eee
=126
12gg-
12aa
12ggg-
12aa-
12ccc-
12aaa-
12aa
12ddd-
12aaa
=127
12aa-
12eee
12aaa-
12aa
12ggg-
12aaa
12ccc-
12ggg
12cccc-
=128
12ddd-
12eee
12aaa
12dddd-
12aaa
12eee
12aaa
12eee
12ddd-
=129
12aa
12ddd-
12eee
12aaa
12eee
12ddd-
12eee
12ddd-
12aa
=130
12dd-
12ee
12aa
12ddd-
12aa
12ee
12aa
12ee
12dd-
=131
12a
12dd-
12ee
12aa
12ee
12dd-
12ee
12dd-
12a
=132
12ee
12dd-
12a
12dd-
12a
12e
12a
12e
12d-
=133
12a
12e
12d-
12e
12d-
12A
4r
=134
2.r
=135
2.r
=136
2.r
=137
2.r
=138
4r
4r
8r
8d-
=139
12A-
12d-
12f
12a-
12f
12d-
12A-
12d-
12f
=140
12d
12f
12a-
12e-
12g-
12a-
12e-
12g-
12a
=141
12c
12g-
12b-
12c
12f
12a-
12c
12e-
12g-
=142
12f
12a-
12dd-
12ff
12dd-
12a-
12f
12a-
12dd-
=143
12a-
12dd-
12ff
12aa-
12ff
12dd-
12a-
12dd-
12ff
=144
12dd-
12ff
12aa-
12ee-
12gg-
12aa-
12ee-
12gg-
12aa
=145
12cc
12gg-
12bb-
12cc
12ff
12aa-
12cc
12ee-
12gg-
=146
12cc
12ee-
12ff
12b-
12dd-
12ff
12a-
12cc
12ff
=147
12a-
12b-
12ff
12g-
12b-
12ee-
12f
12b-
12dd-
=148
12e-
12a-
12cc
12f
12a-
12dd-
12g-
12a-
12ee-
=149
12f
12a-
12dd-
12a-
12f
12d-
12f
12d-
12r
=150
12E
12A-
12d-
12e
12d-
12A-
12E
12A-
12d-
=151
12A-
12d-
12e
12a-
12e
12d-
12A-
12d-
12e
=152
12d
12f
12a-
12e-
12g-
12a-
12d-
12f
12a-
=153
12e-
12g-
12a
12c
12e
12a-
12c
12e-
12g-
=154
12e
12a-
12dd-
12ee
12dd-
12a-
12e
12a-
12dd-
=155
12a-
12dd-
12ee
12aa-
12ee
12dd-
12a-
12dd-
12ee
=156
12ee-
12gg-
12aa-
12ee-
12gg-
12bb-
12ee-
12gg-
12ccc
=157
12dd-
12ee
12ddd-
12ee-
12gg-
12eee-
12ee
12aa-
12eee
=158
12gg-
12aa
12ggg-
12aa-
12ccc-
12aaa-
12aa
12ddd-
12aaa
=159
12aa-
12eee
12aaa-
12aa
12ggg-
12aaa
12ccc-
12ggg
12cccc-
=160
12ddd-
12eee
12aaa
12dddd-
12aaa
12eee
12aaa
12eee
12ddd-
=161
12aa
12ddd-
12eee
12aaa
12eee
12ddd-
12eee
12ddd-
12aa
=162
12dd-
12ee
12aa
12ddd-
12aa
12ee
12aa
12ee
12dd-
=163
12a
12dd-
12ee
12aa
12ee
12dd-
12ee
12dd-
12a
=164
12ee
12dd-
12a
12dd-
12a
12e
12a
12e
12d-
=165
12a
12e
12d-
12e
12d-
12A
4r
=166
2.r
=167
2.r
=168
2.r
=169
2.r
=170
4r
4r
8r
8d-
=171
12A-
12d-
12f
12a-
12f
12d-
12A-
12d-
12f
=172
12d
12f
12a-
12e-
12g-
12a-
12e-
12g-
12a
=173
12c
12g-
12b-
12c
12f
12a-
12c
12e-
12g-
=174
12f
12a-
12dd-
12ff
12dd-
12a-
12f
12a-
12dd-
=175
12a-
12dd-
12ff
12aa-
12ff
12dd-
12a-
12dd-
12ff
=176
12dd-
12ff
12aa-
12ee-
12gg-
12aa-
12ee-
12gg-
12aa
=177
12cc
12gg-
12bb-
12cc
12ff
12aa-
12cc
12ee-
12gg-
=178
12cc
12ee-
12ff
12b-
12dd-
12ff
12a-
12cc
12ff
=179
12a-
12b-
12ff
12g-
12b-
12ee-
12f
12b-
12dd-
=180
12e-
12a-
12cc
12f
12a-
12dd-
12g-
12a-
12ee-
=181
12f
12a-
12dd-
12a-
12f
12d-
12f
12d-
12r
=182
2.r
=183
2.r
=184
2.r
=185
2.r
=186
2.r
=187
2.r
=188
4e-
4e-
4e-
=189
4e-
4e-
4e-
=190
4a-
4.a-
8b-
=191
4a-
4.g
8b-
=192
4b-
4a-
4b-
=193
2cc
4e-
=194
4cc
4.cc
8dd-
=195
4cc
4.b-
8cc
=196
4b-
4a-
8.ee-
16dd-
=197
2cc
4ee-
=198
4aa-
4.aa-
8bb-
=199
4aa-
4.gg
8bb-
=200
4bb-
4aa-
4bb-
=201
2ccc
4ee-
=202
4ccc
4.ccc
8ddd-
=203
4ccc
4.bb-
8ccc
=204
4bb-
8aa-
32bb-
32aa-
32gg
32aa-
8.ccc
16bb-
=205
2aa-
8r
8ee-
=206
4ee-
4.ee-
8cc
=207
4cc
4.cc
8a-
=208
4a-
4b-
4dd-
=209
2cc[
8cc]
8ff
=210
4ff
4.ff
8dd-
=211
4dd-
4.dd-
8a-
=212
4a-
4dd-
4gg-
=213
2ff[
8ff]
8gg-
=214
2.gg-
=215
4ee
4ee-
8dd-
8a-
=216
4a-
8b-
8a-
8g
8a-
=217
8a-
8cc
4b-
4a-
=218
4e-
2e-
=219
4e-
4e-
4e-
=220
4a-
4.a-
8b-
=221
4a-
4.g
8b-
=222
4b-
4a-
4b-
=223
2cc
4e-
=224
4cc
4.cc
8b-
=225
4b-
4.a
8b-
=226
4b-
4a-
4g
=227
2a-
4ee-
=228
4aa-
4.aa-
8bb-
=229
4aa-
4.gg
8bb-
=230
4bb-
4aa-
4bb-
=231
2ccc
4ee-
=232
4ccc
4.ccc
8bb-
=233
4bb-
4.aa
8bb-
=234
4bb-
4aa-
4gg
=235
2aa-
8r
8b-
=236
4b-
4a-
4g
=237
2a-[
8a-]
8dd-
=238
4dd-
4cc
4b-
=239
2a-
4r
==
*-
